X:1
T:Just a Closer Walk with Thee
C:Traditional
Z:www.realbook.site
L:1/4
M:4/4
I:linebreak $
K:Bb
V:1 treble nm=" " snm=" "
V:1
"Bb" F3 ^F | G D"Bb/D" =F"Bbdim/Db" _F |"Cm7" E4- |"F7" E4 |$"Cm7" c3 B |"F7" A F G B | %6
"Bb" G F3-"Gm7" |"Cm7" F4"F7" |$"Bb" d3 d |"Bb7" d B c d |"Eb" c B3- |"Edim7" B2 B G |$ %12
"Bb/F" F3"Gm7" F |"Cm7" F2"F7" G A |"Bb" B4- | B4 |] %16

